X: 32929
T: Prayer Of Long Resolve
R: waltz
M: 3/4
K: Gmajor
M:4/4
g2{a}gJf4d|JB8|{c}B/A/B/c/d6-|d3Je3Jg2-|g3Jf3{a}f2|e<dB3{c}B/A/B2|d8-|
d3BJc2B/A/JG-|G2FE2{A}E/D/E/F/ G|A8-|A2G6-|G2{A}G2D4-|D6z2|
A/A/JB4-B{c}B/A/B/c/|d8|zef2Jg4-|gJB4cd2-|d2!>!Je4A4-|A!>!JB3A<GE2|
JF4G4-|G8|z6JB2|c<de6-|e6 JB2|c<d2A4JB-|!>!B4A/GF/E2-|E4-E{FE}D3-|D2z6|z8|
z6F2|JG8-|G8-|G8-|Gz2 {A}FJG4-|{A}G{A}G-G6-|G8-|G6z2|FJG4-G{A}G2-|G6z2|
JA6JB2-|B8-|B8-|!>!B8|z2JBA4-A-|A4JB4-|!>!B4z4|zB/c/d6-|d2Je4{a}e2|A6z2|
G4-GAAJB-|B8-|B8-|B4z4|z6AJB|c3-c2B{c}BG|DJE3F4|G8-|G8-|
G6z2|z4A4-|A8-|B8-|B4-B3c|d8-|!>!d6z2|f/g/Ja4b/a/g/f/g/a/|
Jb8-|b8-|bc'/b/a/b/Ja{c'}a/g/f/e/{a}e2-|e8-|e6z2|
z2{a}f2Jg2J^c'2|g2{a}gf2{gf}e3-|e2{a}d2c/B/c/d/c/B/A/G/|A8-|A8|
JB3-B2{c}B/A/B/d//e//d/B/|A/JB/{c}B/A/G6-|G8-|G8|g3{ba}g{a}gfJa2-|a2 {c'}a/g/f/g/a2Jb2-|
b8-|b8-|b2Jc'/b/a/b/Ja2{c'}ag|fe3-e4-|e4z{a}fJg2-|g2{a}!>!gf3 az|
JB3{c}BAd3-|dzJE6-|E8-|E6z2|zJF3JG4-G3-|G4zB2e-|e{fe}d4zE6-|
E6F2|G4{a}G4-|G8-|G8|

